X:29
T:Planxty Judge
T:Planxty Mrs. Judge
R:carolan
C:Turlough O'Carolan (1670-1738)
H:Often played after Madam Judge, #28.
H:O'Carolan composed these tunes to be played together
D:Ashplant
Z:id:hn-carolan-29
M:3/4
L:1/8
Q:1/4=220
K:Em
E2G2B2 | E2G2B2 | G2AGFE | F2B,2B,2 | D2d2F2 | E2e2B2 | G2AGFG | E6 :|
|: B2d2g2 | B2d2g2 | gfedef | g2d2B2 | c2cBAG | A2d2D2 | B2e2E2 | e4d2 |
edBde2 | dBABd2 | BAGABG | A2F2D2 | EFG2E2 | FGA2F2 | GAB2B,2 | E6 :|

